symbols/web/tornado/materialsymbolsoutlined/tornado_wght500grad200fill1_24px.svg

<svg xmlns="http://www.w3.org/2000/svg" height="24" width="24"><path d="M3.175 7.575.3 2.6h23.4l-2.875 4.975Zm2.9 5-1.225-2.15h14.3l-1.225 2.15ZM12 22.8l-4.275-7.375h8.55Z"/></svg>

<svg xmlns="http://www.w3.org/2000/svg" height="24" width="24"><path d="M3.175 7.575 0.3 2.6H23.7L20.825 7.575ZM6.075 12.575 4.85 10.425H19.15L17.925 12.575ZM12 22.8 7.725 15.425H16.275Z"/></svg>
